src/images/Vector.svg

<svg width="24" height="24" viewBox="0 0 24 24" fill="none" xmlns="http://www.w3.org/2000/svg">
<path d="M7.31483 1.00575C4.13486 3.5169 0.983789 5.36419 0.203249 9.72263C-0.664018 14.514 1.27288 19.8538 5.46466 22.5093C13.1255 27.3296 25.4985 19.6807 23.8507 10.704C22.9256 5.62396 18.7917 3.57463 13.8482 4.70032C9.94554 5.5951 5.92721 8.42375 7.28592 12.9842C8.58682 17.3427 18.0111 19.6518 18.3002 13.7058C18.4158 11.4833 16.4211 9.9824 14.3975 10.8195C13.5592 11.1658 12.6341 11.6276 12.7786 12.7533C12.8942 13.6481 14.9757 13.6192 14.9757 13.7347C14.7444 15.5531 8.90482 13.4749 10.119 10.0113C11.2753 6.74965 16.8548 6.28783 19.5144 7.64443C21.4513 8.6258 21.7982 11.8586 21.3356 13.7924C20.6996 16.5345 17.9822 18.6416 15.525 19.6518C8.12428 22.798 1.82215 17.8045 3.09414 9.95354C3.58559 6.86511 5.78266 4.70032 8.38446 3.08394C9.39627 2.44894 10.7839 2.27575 11.2753 1.06347C12.1137 -1.07245 7.80628 0.601651 7.31483 1.00575Z" fill="#FBD83F"/>
</svg>

<svg width="24" height="24" viewBox="0 0 24 24" fill="none" xmlns="http://www.w3.org/2000/svg"><path d="M7.315 1.006C4.135 3.516.984 5.364.203 9.723c-.867 4.791 1.07 10.13 5.262 12.786 7.66 4.82 20.033-2.828 18.386-11.805-.925-5.08-5.06-7.13-10.003-6.004-3.902.895-7.92 3.724-6.562 8.284 1.3 4.359 10.725 6.668 11.014.722.116-2.223-1.879-3.724-3.902-2.886-.839.346-1.764.808-1.62 1.933.116.895 2.198.866 2.198.982-.232 1.818-6.071-.26-4.857-3.724 1.156-3.261 6.736-3.723 9.395-2.367 1.937.982 2.284 4.215 1.822 6.148-.636 2.743-3.354 4.85-5.811 5.86-7.4 3.146-13.703-1.848-12.43-9.698.49-3.089 2.688-5.254 5.29-6.87 1.011-.635 2.399-.808 2.89-2.02.839-2.136-3.469-.462-3.96-.058z" fill="#FBD83F"/></svg>
